!!!!SEGMENT: erk131.krn
!!!OTL@@DE: Treuer Tod
!!!COM: Choron, Alexandre Etienne
!!!ODT: 1806
!!!OPR: La Sentinelle
!!!OMD: Andante con moto
!!!LYR: Körner, Th.
!!!LDT: 1813
!!!OCL: Erk, Ludwig
!!!GCO: Deutscher Liederschatz, Band 1
**kern	**kern	**dynam	**kern	**dynam
*staff3	*staff2	*staff2/3	*staff1	*staff1
*Ipiano	*Ipiano	*	*Ivox	*
*clefF4	*clefG2	*	*clefG2	*
*k[]	*k[]	*	*k[]	*
*C:	*C:	*	*C:	*
*met(c)	*met(c)	*	*met(c)	*
*M4/4	*M4/4	*	*M4/4	*
*MM104	*MM104	*	*MM104	*
8r	8r	.	8cc	.
4r	4r	.	8.dd	.
.	.	.	16ee	.
=1	=1	=1	=1	=1
8CC 8CL	8G 8c 8eL	p	4.g	.
8rD	8rg	.	.	.
8CC 8CJ	8G 8c 8eJ	.	.	.
8r	8r	.	8a	.
8CC 8CL	8G 8B 8fL	.	8.g	.
8rD	8rb	.	.	.
.	.	.	16f	.
8CC 8CJ	8G 8B 8fJ	.	8.d	.
8r	8r	.	.	.
.	.	.	16e	.
=2	=2	=2	=2	=2
8CC 8CL	8G 8c 8eL	.	2c	.
8rD	8rg	.	.	.
8CC 8CJ	8G 8c 8eJ	.	.	.
8r	8r	.	.	.
8CC 8C	8G 8c 8e	.	8r	.
8r	8r	.	8g	<
4r	4r	.	8.cc	.
.	.	.	16dd	[[
!!LO:LB:g=original
=3	=3	=3	=3	=3
8CC 8CL	8G 8c 8eL	.	4.ee	.
8rD	8rg	.	.	.
8CC 8CJ	8G 8c 8eJ	.	.	.
8r	8r	.	8dd	.
8CC 8CL	8G 8c 8eL	.	8.cc	.
8rD	8rg	.	.	.
.	.	.	16dd	.
8CC 8CJ	8G 8c 8eJ	.	8.ee	.
8r	8r	.	.	.
.	.	.	16ff	.
=4	=4	=4	=4	=4
8GGG 8GGL	8G 8B 8dL	.	4dd	.
8rBB	8rg	.	.	.
8GGG 8GGJ	8G 8B 8dJ	.	4g	.
8r	8r	.	.	.
8GGG 8GG	8G 8B 8d	.	8r	.
8r	8r	.	8cc	.
4r	4r	.	8.dd	.
.	.	.	16ee	.
=5	=5	=5	=5	=5
8DL	8A 8c 8f#L	.	4.f#	.
8r	8rb	.	.	.
8DJ	8A 8c 8f#J	.	.	.
8r	8r	.	8a	.
8DL	8A 8c 8f#L	.	8.g	.
8r	8rb	.	.	.
.	.	.	16f#	.
8DJ	8A 8c 8f#J	.	8.e	.
8r	8r	.	.	.
.	.	.	16d	.
!!LO:LB:g=original
=6	=6	=6	=6	=6
8GGL	8B 8gL	.	8.g	.
8rBB	8rb	.	.	.
.	.	.	16a	.
8GGJ	8B 8gJ	.	8.b	.
8r	8r	.	.	.
.	.	.	16cc	.
8BBL	8d 8gL	.	8.dd	.
8r	8rb	.	.	.
.	.	.	16ee	.
8BBJ	8d 8gJ	.	8.dd	.
8r	8r	.	.	.
.	.	.	16cc	.
=7	=7	=7	=7	=7
8CL	8c 8e 8aL	>	(8ccL	>
8r	8rb	.	8bJ)	.
8CJ	8c 8e 8aJ	]]	(8.aL	]
8r	8r	.	.	.
.	.	.	16gJk)	.
8DL	8B 8d 8gL	.	(4g	.
8r	8rb	.	.	.
.	.	.	8bqq	.
8DJ	8c 8d 8f#J	.	4a)	.
8r	8r	.	.	.
=8	=8	=8	=8	=8
8GGL	8B 8d 8gL	.	2g	.
8rBB	8rb	.	.	.
8GGJ	8B 8d 8gJ	.	.	.
8r	8r	.	.	.
8GG	8B 8d 8g	.	8r	.
8r	8r	.	8g	.
4r	4r	.	8.dd	.
.	.	.	16cc	.
!!LO:LB:g=original
=9	=9	=9	=9	=9
!	!	!LO:DY:rj	!	!
8GGG 8GGL	8G 8d 8fnL	pf	4.b	.
8rBB	8rg	.	.	.
8GGG 8GGJ	8G 8d 8fJ	.	.	.
8r	8r	.	8a	.
8GGG 8GGL	8G 8B 8fL	.	(8gL	.
8rBB	8rg	.	8ffJ)	.
8GGG 8GGJ	8G 8B 8fJ	.	(8eeL	.
8r	8r	.	8ddJ)	.
=10	=10	=10	=10	=10
8CC 8CL	8G 8c 8eL	.	2cc	.
8rD	8rg	.	.	.
8CC 8CJ	8G 8c 8eJ	.	.	.
8r	8r	.	.	.
8CC 8C	8G 8c 8e	.	8r	.
8r	8r	.	8g	.
4r	4r	.	8.ee	.
.	.	.	16dd	.
=11	=11	=11	=11	=11
8CC 8CL	8G 8c 8eL	.	4.cc	.
8rD	8rg	.	.	.
8CC 8CJ	8G 8c 8eJ	.	.	.
8r	8r	.	8cc	.
8CC 8CL	8G 8c 8eL	.	(8ffL	.
8rD	8rg	.	8eeJ)	.
8CC 8CJ	8G 8c 8eJ	.	(8ddL	.
8r	8r	.	8ccJ)	.
!!LO:LB:g=original
=12	=12	=12	=12	=12
4.GGG; 4.GG;	4.G; 4.B; 4.d;	.	(<4dd;	.
.	.	.	16qffLL	.
.	.	.	16qeeJJ)	.
.	.	.	8dd	.
8r;	8r;	.	8r;	.
8CC 8CL	8g 8cc 8eeL	.	4ee	.
8r	8r	.	.	.
8c 8eJ	8g 8cc 8eeJ	.	8.ff	.
8r	8r	.	.	.
.	.	.	16ee	.
=13	=13	=13	=13	=13
8GGG 8GGL	8g 8b 8ddL	.	8.dd	.
8r	8r	.	.	.
.	.	.	16dd	.
8G 8dJ	8g 8b 8ddJ	.	8.gg	.
8r	8r	.	.	.
.	.	.	16b	.
8AAA 8AAL	8e 8a 8ccL	.	8.cc	.
8r	8r	.	.	.
.	.	.	16cc	.
8A 8cJ	8e 8a 8ccJ	.	8.dd	.
8r	8r	.	.	.
.	.	.	16cc	.
=14	=14	=14	=14	=14
8EE 8EL	8e 8g# 8bL	.	8.b	.
8r	8r	.	.	.
.	.	.	16b	.
8E 8BJ	8e 8g# 8bJ	.	8.ee	.
8r	8r	.	.	.
.	.	.	16g#	.
8FF 8FL	8c 8f 8aL	.	8.a	.
8r	8rb	.	.	.
.	.	.	16cc	.
8F 8AJ	8c 8f 8aJ	.	8.b	.
8r	8r	.	.	.
.	.	.	16a	.
!!LO:LB:g=original
=15	=15	=15	=15	=15
8CC 8C	8c 8e 8gn	.	8gn	.
8r	8r	.	8cc	.
4r	4r	.	8b	.
.	.	.	8cc	.
2GGG^> 2GG^>	2G 2B 2f	.	(4dd	.
.	.	.	4g)	.
=16	=16	=16	=16	=16
4.CC 4.C	4.G 4.c 4.e	.	4.ee	.
8r	8r	.	8r	.
8CC 8CL	8g 8cc 8eeL	.	4ee	.
8r	8r	.	.	.
8c 8eJ	8g 8cc 8eeJ	.	8.ff	.
8r	8r	.	.	.
.	.	.	16ee	.
=17	=17	=17	=17	=17
8GGG 8GGL	8g 8b 8ddL	.	8.dd	.
8r	8r	.	.	.
.	.	.	16dd	.
8G 8dJ	8g 8b 8ddJ	.	8.gg	.
8r	8r	.	.	.
.	.	.	16b	.
8AAA 8AAL	8e 8a 8ccL	.	8.cc	.
8r	8r	.	.	.
.	.	.	16cc	.
8A 8cJ	8e 8a 8ccJ	.	8.dd	.
8r	8r	.	.	.
.	.	.	16cc	.
!!LO:LB:g=original
=18	=18	=18	=18	=18
8EE 8EL	8e 8g# 8bL	.	8.b	.
8r	8r	.	.	.
.	.	.	16b	.
8E 8BJ	8e 8g# 8bJ	.	8.ee	.
8r	8r	.	.	.
.	.	.	16g#	.
8FF 8FL	8c 8f 8aL	.	8.a	.
8r	8rb	.	.	.
.	.	.	16cc	.
8F 8AJ	8c 8f 8aJ	.	8.b	.
8r	8r	.	.	.
.	.	.	16a	.
=19	=19	=19	=19	=19
8CC 8C	8c 8e 8gn	.	8.gn	.
8r	8r	.	.	.
.	.	.	16cc	.
4r	4r	.	8.b	.
.	.	.	16cc	.
2GGG^> 2GG^>	2G 2B 2f	.	(4dd	.
.	.	.	4g)	.
=20	=20	=20	=20	=20
!	!	!	!LO:TX:a:i:t=rall.	!
8CC 8C	8G 8c 8e	.	8.ee	.
8r	8r	.	.	.
.	.	.	16ff	.
!	!LO:TX:b:i:t=rall.	!	!	!
(4F	(4c 4a	.	8.a	.
.	.	.	16dd	.
4G	4e 4g	.	(4cc	.
.	.	.	(<8qeeSsS	.
4GG)	4f) 4g 4b	.	4dd))	.
!!LO:LB:g=original
=21	=21	=21	=21	=21
4CC 4C	4e 4g 4cc	f	2cc	.
4G	8.gL	.	.	.
.	16gJk	.	.	.
4BB 4B	4g 4dd 4ff	.	2r	.
4G	8.gL	.	.	.
.	16gJk	.	.	.
=22	=22	=22	=22	=22
4C 4c	4e 4g 4cc 4ee	.	1r	.
4AA 4A	8.e 8.a 8.ccL	.	.	.
.	16e 16a 16ccJk	.	.	.
4FF 4F	8.f 8.a 8.ddL	.	.	.
.	16f 16a 16ddJk	.	.	.
4GG 4G	8.d 8.g 8.bL	.	.	.
.	16d 16g 16bJk	.	.	.
=23	=23	=23	=23	=23
4CC 4C	8e 8g 8ccL	.	1r	.
.	16gL	.	.	.
.	16gJJ	.	.	.
4G	8gL	.	.	.
.	8gJ	.	.	.
4BB 4B	8g 8dd 8ffL	.	.	.
.	16gL	.	.	.
.	16gJJ	.	.	.
4G	8gL	.	.	.
.	8gJ	.	.	.
=24	=24	=24	=24	=24
4C 4c	4e 4g 4cc 4ee	.	1r	.
8.AA 8.AL	8.e 8.a 8.ccL	.	.	.
16AA 16AJk	16e 16a 16ccJk	.	.	.
8.FF 8.FL	8.f 8.a 8.ddL	.	.	.
16FF 16FJk	16f 16a 16ddJk	.	.	.
8.GG 8.GL	8.d 8.g 8.bL	.	.	.
16GG 16GJk	16d 16g 16bJk	.	.	.
=25	=25	=25	=25	=25
8CC 8CL	8e 8g 8ccL	.	2r	.
8r	8r	.	.	.
8C 8cJ	8e 8g 8cc 8eeJ	.	.	.
8r	8r	.	.	.
8CC 8C	8c	.	8r	.
==	==	==	==	==
*-	*-	*-	*-	*-
!!!system-decoration: s1{(s2,s3)}
!!!RDF**kern: > = above
!!!RDF**kern: < = below
!!!ENC: Craig Stuart Sapp
!!!END: 2004/06/01/
!!!EED: Craig Stuart Sapp
!!!EEV: 2025/07/19
!!!EFL: 131/650
